images/icons/linkedIn-icon.svg

<svg width="32" height="32" viewBox="0 0 32 32" fill="none" xmlns="http://www.w3.org/2000/svg">
<path d="M15.9997 0C7.17757 0 0 7.17757 0 16C0 24.8227 7.17757 32 15.9997 32C24.8222 32 32 24.8227 32 16C31.9997 7.17757 24.8219 0 15.9997 0ZM15.9997 30.4219C8.0476 30.4219 1.57806 23.9524 1.57806 16C1.57806 8.04787 8.0476 1.57806 15.9997 1.57806C23.9519 1.57806 30.4219 8.04787 30.4219 16C30.4217 23.9524 23.9519 30.4219 15.9997 30.4219Z" fill="#484E53"/>
<path d="M7.87305 12.6094H11.5757V22.2708H7.87305V12.6094Z" fill="#484E53"/>
<path d="M9.68841 11.0681C10.7234 11.0681 11.5624 10.3027 11.5624 9.3585C11.5624 8.41433 10.7234 7.64893 9.68841 7.64893C8.65345 7.64893 7.81445 8.41433 7.81445 9.3585C7.81445 10.3027 8.65345 11.0681 9.68841 11.0681Z" fill="#484E53"/>
<path d="M20.8831 12.3911C20.1248 12.3911 19.4823 12.5292 18.9541 12.8051C18.4265 13.0813 17.9052 13.5405 17.3895 14.1833V12.6094H13.9414V22.2709H17.6441V17.6311C17.6441 16.7516 17.7837 16.1424 18.0628 15.8026C18.3418 15.4631 18.7053 15.2932 19.1543 15.2932C19.5606 15.2932 19.876 15.4192 20.1006 15.6709C20.3252 15.9226 20.437 16.3515 20.437 16.9583V22.2709H24.1581V16.1303C24.1581 14.8566 23.8682 13.915 23.2888 13.3053C22.7102 12.6957 21.9077 12.3911 20.8831 12.3911Z" fill="#484E53"/>
</svg>

<svg xmlns="http://www.w3.org/2000/svg" width="32" height="32" fill="none"><path fill="#484E53" d="M16 0C7.178 0 0 7.178 0 16c0 8.823 7.178 16 16 16s16-7.177 16-16c0-8.822-7.178-16-16-16m0 30.422c-7.952 0-14.422-6.47-14.422-14.422S8.048 1.578 16 1.578 30.422 8.048 30.422 16 23.952 30.422 16 30.422"/><path fill="#484E53" d="M7.873 12.61h3.703v9.66H7.873zM9.688 11.068c1.035 0 1.874-.765 1.874-1.71 0-.944-.839-1.71-1.874-1.71s-1.874.766-1.874 1.71c0 .945.84 1.71 1.874 1.71M20.883 12.391q-1.136 0-1.929.414-.791.415-1.564 1.378V12.61H13.94v9.662h3.703v-4.64q0-1.32.419-1.828.418-.51 1.091-.51.61 0 .947.378.336.377.336 1.287v5.313h3.721v-6.14q0-1.911-.87-2.826-.867-.915-2.405-.914"/></svg>
